dist/img/svg/advantages/humidity.svg

<svg width="22" height="28" viewBox="0 0 22 28" fill="none" xmlns="http://www.w3.org/2000/svg">
<g clip-path="url(#clip0_86_1598)">
<path d="M16.0912 6.1705C14.5915 4.3435 13.0405 2.457 11.7902 0.4305C11.6252 0.1645 11.3245 0 11 0C10.6755 0 10.3748 0.1645 10.2117 0.4305C8.96133 2.45525 7.41033 4.3435 5.91067 6.16875C2.871 9.86825 0 13.363 0 17.5C0 23.2908 4.9335 28 11 28C17.0665 28 22 23.2908 22 17.5C22 13.3647 19.1308 9.87 16.0912 6.1705ZM11 26.25C5.9455 26.25 1.83333 22.3247 1.83333 17.5C1.83333 13.9668 4.51367 10.7048 7.3535 7.2485C8.59283 5.74 9.86517 4.19125 11 2.53225C12.1348 4.19125 13.4072 5.74175 14.6465 7.25025C17.4863 10.7048 20.1667 13.9685 20.1667 17.5C20.1667 22.3247 16.0545 26.25 11 26.25Z" fill="#78C081"/>
<path d="M8.25 10.5C6.73383 10.5 5.5 11.6777 5.5 13.125C5.5 14.5722 6.73383 15.75 8.25 15.75C9.76617 15.75 11 14.5722 11 13.125C11 11.6777 9.76617 10.5 8.25 10.5ZM8.25 14C7.744 14 7.33333 13.608 7.33333 13.125C7.33333 12.642 7.744 12.25 8.25 12.25C8.756 12.25 9.16667 12.642 9.16667 13.125C9.16667 13.608 8.756 14 8.25 14Z" fill="#78C081"/>
<path d="M13.75 19.25C12.2338 19.25 11 20.4277 11 21.875C11 23.3222 12.2338 24.5 13.75 24.5C15.2662 24.5 16.5 23.3222 16.5 21.875C16.5 20.4277 15.2662 19.25 13.75 19.25ZM13.75 22.75C13.2458 22.75 12.8333 22.3563 12.8333 21.875C12.8333 21.3937 13.2458 21 13.75 21C14.2542 21 14.6667 21.3937 14.6667 21.875C14.6667 22.3563 14.2542 22.75 13.75 22.75Z" fill="#78C081"/>
<path d="M16.2305 12.5073C15.873 12.166 15.2918 12.166 14.9343 12.5073L5.76764 21.2573C5.41014 21.5985 5.41014 22.1533 5.76764 22.4945C5.9473 22.6643 6.18197 22.75 6.41664 22.75C6.6513 22.75 6.88597 22.6643 7.0638 22.4945L16.2305 13.7445C16.588 13.4033 16.588 12.8485 16.2305 12.5073Z" fill="#78C081"/>
</g>
<defs>
<clipPath id="clip0_86_1598">
<rect width="22" height="28" fill="white"/>
</clipPath>
</defs>
</svg>

<svg width="22" height="28" fill="none" xmlns="http://www.w3.org/2000/svg"><g clip-path="url(#clip0_86_1598)" fill="#78C081"><path d="M16.091 6.17c-1.5-1.827-3.05-3.713-4.3-5.74A.929.929 0 0011 0a.923.923 0 00-.788.43C8.962 2.455 7.41 4.343 5.91 6.17 2.87 9.869 0 13.363 0 17.5 0 23.29 4.934 28 11 28c6.067 0 11-4.71 11-10.5 0-4.135-2.87-7.63-5.909-11.33zM11 26.25c-5.054 0-9.167-3.925-9.167-8.75 0-3.533 2.68-6.795 5.52-10.252C8.594 5.74 9.866 4.191 11 2.532c1.135 1.66 2.407 3.21 3.646 4.718 2.84 3.455 5.52 6.719 5.52 10.25 0 4.825-4.111 8.75-9.166 8.75z"/><path d="M8.25 10.5c-1.516 0-2.75 1.178-2.75 2.625s1.234 2.625 2.75 2.625S11 14.572 11 13.125 9.766 10.5 8.25 10.5zm0 3.5c-.506 0-.917-.392-.917-.875s.411-.875.917-.875.917.392.917.875S8.756 14 8.25 14zm5.5 5.25c-1.516 0-2.75 1.178-2.75 2.625s1.234 2.625 2.75 2.625 2.75-1.178 2.75-2.625-1.234-2.625-2.75-2.625zm0 3.5c-.504 0-.917-.394-.917-.875s.413-.875.917-.875.917.394.917.875-.413.875-.917.875zm2.48-10.243a.948.948 0 00-1.296 0l-9.166 8.75a.848.848 0 000 1.237c.18.17.414.256.649.256a.937.937 0 00.647-.256l9.166-8.75a.848.848 0 000-1.237z"/></g><defs><clipPath id="clip0_86_1598"><path fill="#fff" d="M0 0h22v28H0z"/></clipPath></defs></svg>
